packages/icons/svg/24/Question.svg

<svg width="24" height="24" viewBox="0 0 24 24" fill="none" xmlns="http://www.w3.org/2000/svg">
<path fill-rule="evenodd" clip-rule="evenodd" d="M12 2C6.48 2 2 6.48 2 12C2 17.52 6.48 22 12 22C17.52 22 22 17.52 22 12C22 6.48 17.52 2 12 2ZM13.1787 17.2539C13.1787 17.9443 12.6191 18.5039 11.9287 18.5039C11.2384 18.5039 10.6787 17.9443 10.6787 17.2539C10.6787 16.5635 11.2384 16.0039 11.9287 16.0039C12.6191 16.0039 13.1787 16.5635 13.1787 17.2539ZM13.2369 13.2739C13.2469 13.2539 13.2569 13.2339 13.2669 13.2239C13.539 12.8248 13.9181 12.4924 14.3025 12.1554C15.1892 11.3779 16.1038 10.5761 15.7969 8.87393C15.5069 7.18393 14.1569 5.79393 12.4669 5.54393C10.4069 5.24393 8.58686 6.51393 8.03686 8.33393C7.86686 8.91393 8.30686 9.50393 8.90686 9.50393H9.10686C9.51686 9.50393 9.84686 9.21393 9.98686 8.85393C10.3069 7.96393 11.2469 7.35393 12.2869 7.57393C13.2469 7.77393 13.9469 8.72393 13.8569 9.70393C13.7891 10.4675 13.2436 10.8898 12.6383 11.3584C12.2606 11.6508 11.8596 11.9613 11.5369 12.3839L11.5269 12.3739C11.5095 12.3913 11.4955 12.4153 11.481 12.4402C11.4704 12.4584 11.4595 12.477 11.4469 12.4939C11.4319 12.5189 11.4144 12.5439 11.3969 12.5689C11.3794 12.5939 11.3619 12.6189 11.3469 12.6439C11.2569 12.7839 11.1869 12.9239 11.1269 13.0839C11.1219 13.1039 11.1119 13.1189 11.1019 13.1339C11.0919 13.1489 11.0819 13.1639 11.0769 13.1839C11.0669 13.1939 11.0669 13.2039 11.0669 13.2139C10.9469 13.5739 10.8669 14.0039 10.8669 14.5139H12.8769C12.8769 14.2639 12.9069 14.0439 12.9769 13.8339C12.9969 13.7639 13.0269 13.6939 13.0569 13.6239C13.0669 13.5839 13.0769 13.5439 13.0969 13.5139C13.1369 13.4339 13.1869 13.3539 13.2369 13.2739Z" fill="#858585"/>
</svg>

<svg width="24" height="24" fill="none" xmlns="http://www.w3.org/2000/svg" viewBox="0 0 24 24"><path fill-rule="evenodd" clip-rule="evenodd" d="M12 2C6.48 2 2 6.48 2 12s4.48 10 10 10 10-4.48 10-10S17.52 2 12 2zm1.179 15.254a1.25 1.25 0 11-2.5 0 1.25 1.25 0 012.5 0zm.058-3.98c.01-.02.02-.04.03-.05.272-.4.651-.732 1.036-1.069.886-.777 1.8-1.579 1.494-3.281-.29-1.69-1.64-3.08-3.33-3.33-2.06-.3-3.88.97-4.43 2.79-.17.58.27 1.17.87 1.17h.2c.41 0 .74-.29.88-.65.32-.89 1.26-1.5 2.3-1.28.96.2 1.66 1.15 1.57 2.13-.068.763-.613 1.186-1.219 1.654-.377.293-.778.603-1.101 1.026l-.01-.01a.326.326 0 00-.046.066 1.302 1.302 0 01-.084.129 2.261 2.261 0 00-.27.515.156.156 0 01-.025.05c-.01.015-.02.03-.025.05-.01.01-.01.02-.01.03-.12.36-.2.79-.2 1.3h2.01a2.11 2.11 0 01.18-.89c.01-.04.02-.08.04-.11.04-.08.09-.16.14-.24z" fill="currentColor"></path></svg>
